actions/16/view-calendar-birthday.svg

<svg xmlns="http://www.w3.org/2000/svg" style="fill-rule:evenodd;clip-rule:evenodd;stroke-linejoin:round;stroke-miterlimit:2" width="100%" height="100%" viewBox="0 0 16 16" xml:space="preserve">
 <defs>
  <style id="current-color-scheme" type="text/css">
   .ColorScheme-Text { color:#dfdfdf; } .ColorScheme-Highlight { color:#4285f4; } .ColorScheme-NeutralText { color:#ff9800; } .ColorScheme-PositiveText { color:#4caf50; } .ColorScheme-NegativeText { color:#f44336; }
  </style>
 </defs>
 <path style="fill:currentColor;" class="ColorScheme-Text" d="M4.5,2c-0.274,-0 -0.5,0.226 -0.5,0.5c0,0.274 0.226,0.5 0.5,0.5c0.274,0 0.5,-0.226 0.5,-0.5c-0,-0.274 -0.226,-0.5 -0.5,-0.5Zm3,0c-0.274,0 -0.5,0.226 -0.5,0.5c0,0.274 0.226,0.5 0.5,0.5c0.274,0 0.5,-0.226 0.5,-0.5c0,-0.274 -0.226,-0.5 -0.5,-0.5Zm3,0c-0.274,-0 -0.5,0.226 -0.5,0.5c0,0.274 0.226,0.5 0.5,0.5c0.274,0 0.5,-0.226 0.5,-0.5c-0,-0.274 -0.226,-0.5 -0.5,-0.5Zm-6.5,2l0,2l-0.405,0c-0.881,0 -1.595,0.714 -1.595,1.595c0,1.396 0,3.414 0,4.81c0,0.881 0.714,1.595 1.595,1.595c2.297,-0 6.513,0 8.81,-0c0.881,-0 1.595,-0.714 1.595,-1.595l-0,-4.81c-0,-0.423 -0.168,-0.829 -0.467,-1.128c-0.299,-0.299 -0.705,-0.467 -1.128,-0.467c-0.717,-0 -1.405,-0 -1.405,-0l-0,-2l-1,-0l-0,2l-2,-0l-0,-2l-1,-0l-0,2l-2,-0l-0,-2l-1,-0Zm-1,3.607c-0,-0.161 0.064,-0.315 0.178,-0.429c0.114,-0.114 0.268,-0.178 0.429,-0.178c1.785,-0 7.001,-0 8.786,0c0.161,0 0.315,0.064 0.429,0.178c0.114,0.114 0.178,0.268 0.178,0.429c-0,0.877 -0,2.393 -0,2.393c-1.097,-0 -2,-0.451 -2,-1l-0,-1l-1,-0l-0,1c-0,0.549 -0.903,1 -2,1c-1.097,-0 -2,-0.451 -2,-1l-0,-1l-1,-0l-0,1c-0,0.549 -0.903,1 -2,1l-0,-2.393Zm2.5,2.497c0.555,0.558 1.495,0.896 2.5,0.896c1.005,-0 1.945,-0.338 2.5,-0.896c0.555,0.558 1.495,0.896 2.5,0.896l-0,1.393c-0,0.335 -0.272,0.607 -0.607,0.607c-1.785,-0 -7.001,0 -8.786,-0c-0.335,-0 -0.607,-0.272 -0.607,-0.607c-0,-0.589 -0,-1.393 -0,-1.393c1.005,-0 1.945,-0.338 2.5,-0.896Z"/>
</svg>

<svg xmlns="http://www.w3.org/2000/svg" style="fill-rule:evenodd;clip-rule:evenodd;stroke-linejoin:round;stroke-miterlimit:2" viewBox="0 0 16 16" xml:space="preserve">
    <defs>
        <style id="current-color-scheme" type="text/css">
            .ColorScheme-Highlight{color:#4285f4}.ColorScheme-NeutralText{color:#ff9800}.ColorScheme-PositiveText{color:#4caf50}.ColorScheme-NegativeText{color:#f44336}
        </style>
    </defs>
    <path style="fill:currentColor;color:#dfdfdf" d="M4.5 2c-.274 0-.5.226-.5.5s.226.5.5.5.5-.226.5-.5-.226-.5-.5-.5Zm3 0c-.274 0-.5.226-.5.5s.226.5.5.5.5-.226.5-.5-.226-.5-.5-.5Zm3 0c-.274 0-.5.226-.5.5s.226.5.5.5.5-.226.5-.5-.226-.5-.5-.5ZM4 4v2h-.405C2.714 6 2 6.714 2 7.595v4.81C2 13.286 2.714 14 3.595 14h8.81c.881 0 1.595-.714 1.595-1.595v-4.81A1.596 1.596 0 0 0 12.405 6H11V4h-1v2H8V4H7v2H5V4H4ZM3 7.607A.606.606 0 0 1 3.607 7h8.786a.606.606 0 0 1 .607.607V10c-1.097 0-2-.451-2-1V8h-1v1c0 .549-.903 1-2 1s-2-.451-2-1V8H5v1c0 .549-.903 1-2 1V7.607Zm2.5 2.497c.555.558 1.495.896 2.5.896s1.945-.338 2.5-.896c.555.558 1.495.896 2.5.896v1.393a.607.607 0 0 1-.607.607H3.607A.607.607 0 0 1 3 12.393V11c1.005 0 1.945-.338 2.5-.896Z"/>
</svg>
